packages/core/src/svgs/jkl.svg

<svg width="24" height="24" viewBox="0 0 24 24" fill="none" xmlns="http://www.w3.org/2000/svg">
<g clip-path="url(#clip0_31_12109)">
<path d="M0 0H24V24H0V0Z" fill="url(#paint0_linear_31_12109)"/>
<path fill-rule="evenodd" clip-rule="evenodd" d="M7.04147 9.08151C7.0329 9.00865 7.02433 8.94008 7.04147 8.86722C7.04147 8.85436 7.04575 8.85008 7.05433 8.86722C7.14004 9.10722 7.2129 9.35151 7.2729 9.60008C7.29433 9.68579 7.32004 9.76294 7.35004 9.84436L7.3929 9.98151C7.52039 10.3485 7.70557 10.6928 7.94147 11.0015C7.94447 11.0021 7.94755 11.002 7.9505 11.0012C7.95346 11.0005 7.95622 10.9991 7.95861 10.9972C8.00147 10.9544 8.02718 10.9115 8.06147 10.8644L8.15576 10.7401L8.28433 10.5815L8.4129 10.4144C8.47718 10.3501 8.5329 10.2858 8.58433 10.2129L8.79861 9.96865L9.07718 9.67722C9.13718 9.61294 9.12861 9.53579 9.11575 9.46294C9.00026 8.80524 8.80301 8.16456 8.52861 7.55579C8.42147 7.31151 8.31433 7.06294 8.18575 6.82722C8.17979 6.81207 8.17979 6.79523 8.18575 6.78008C8.18575 6.75436 8.2029 6.75436 8.21575 6.77579L8.78575 7.52151C8.94004 7.72294 9.11575 8.01008 9.3129 8.38722C9.42433 8.59294 9.51433 8.80294 9.5829 9.01294C9.68576 9.33008 9.74147 9.63436 9.74575 9.91722C9.75112 10.4741 9.56161 11.0153 9.21004 11.4472C9.207 11.4497 9.20322 11.451 9.19933 11.451C9.19543 11.451 9.19165 11.4497 9.18861 11.4472C9.18441 11.4435 9.18108 11.4388 9.17885 11.4336C9.17663 11.4285 9.17557 11.4229 9.17575 11.4172C9.17755 11.2896 9.16021 11.1625 9.12433 11.0401C9.11607 11.0304 9.10477 11.0239 9.0923 11.0216C9.07983 11.0193 9.06694 11.0212 9.05575 11.0272C9.01718 11.0529 8.9829 11.0786 8.94861 11.1129C8.87147 11.1815 8.84576 11.1644 8.87147 11.0615C8.90775 10.9185 8.96098 10.7804 9.03004 10.6501C9.0302 10.6473 9.02945 10.6445 9.0279 10.6422C9.02636 10.6399 9.0241 10.6381 9.02147 10.6372H9.0129C8.97914 10.6467 8.94824 10.6644 8.9229 10.6887C8.57575 10.9929 8.23718 11.3315 7.93718 11.6872C7.83861 11.8072 7.7229 11.9315 7.59004 12.0558C7.55385 12.0895 7.53102 12.1352 7.52575 12.1844C7.47118 12.6785 7.50016 13.1784 7.61147 13.6629L7.59433 13.6887C7.48549 13.7825 7.3851 13.8858 7.29433 13.9972L7.29861 14.0101L7.30718 14.0186L7.32433 14.0229C7.44433 14.0229 7.56004 14.0358 7.68004 14.0701C7.68855 14.0717 7.69638 14.0758 7.7025 14.0819C7.70862 14.088 7.71274 14.0959 7.71433 14.1044C7.7159 14.112 7.71555 14.1199 7.71331 14.1274C7.71106 14.1349 7.70699 14.1417 7.70147 14.1472C7.35359 14.4971 7.06031 14.8973 6.83147 15.3344C6.77575 15.4415 6.79718 15.4587 6.89147 15.3772L6.96433 15.3087C6.99861 15.2744 7.0329 15.2401 7.07575 15.2101C7.1829 15.1329 7.29004 15.0472 7.40575 14.9529L7.59433 14.8244L7.77861 14.6958C7.82575 14.6529 7.88147 14.6744 7.89433 14.7387C7.90718 14.8072 7.83861 14.9401 7.79575 15.0215L7.7829 15.0515C7.68353 15.2717 7.64221 15.5137 7.6629 15.7544C7.67784 15.8825 7.68785 16.0112 7.6929 16.1401C7.69576 16.1442 7.69962 16.1475 7.70411 16.1498C7.70861 16.152 7.71359 16.1531 7.71861 16.1529L7.73147 16.1487C7.89531 16.0361 8.0527 15.9145 8.2029 15.7844H8.21147L8.22004 15.7929C8.2929 15.9044 8.34004 16.0244 8.38718 16.1401C8.42735 16.2557 8.47459 16.3688 8.52861 16.4787C8.55433 16.5558 8.58433 16.6329 8.63147 16.6929L8.8029 16.9115C8.97433 17.1386 9.19718 17.2972 9.47576 17.3401C9.49718 17.3401 9.51861 17.3529 9.53147 17.3658C9.54861 17.3829 9.5529 17.4001 9.5529 17.4258C9.54433 17.6272 9.56147 17.8329 9.60861 18.0387C9.64718 18.1972 9.72004 18.3472 9.7929 18.5015C9.83575 18.5872 9.87861 18.6772 9.91718 18.7715C10.0243 19.0458 10.2258 19.2687 10.4315 19.4572L10.5086 19.5086L10.6372 19.5601C10.8729 19.6672 11.1 19.7701 11.3743 19.6801C11.5458 19.6286 11.7172 19.5515 11.8886 19.4615C11.9486 19.4272 12.0043 19.4272 12.06 19.4529L12.4372 19.6329C12.7886 19.8001 13.1229 19.6758 13.4615 19.4872C13.657 19.3541 13.8197 19.1782 13.9372 18.9729C14.0015 18.8144 14.0658 18.6687 14.1472 18.5229C14.1772 18.4672 14.1986 18.4072 14.22 18.3472L14.2629 18.2444C14.37 17.9872 14.3958 17.6787 14.3829 17.3958C14.3816 17.3828 14.3854 17.3698 14.3933 17.3595C14.4013 17.3491 14.4129 17.3422 14.4258 17.3401C14.8415 17.3058 15.0686 17.0101 15.3 16.7058L15.3258 16.6715C15.39 16.5858 15.4372 16.5087 15.4715 16.4315C15.5663 16.2207 15.6563 16.0078 15.7415 15.7929H15.75C15.8229 15.8186 15.8786 15.8486 15.9386 15.9001C16.0329 15.9772 16.1272 16.0501 16.23 16.1229C16.2429 16.1315 16.2558 16.1315 16.2686 16.1315C16.2732 16.1315 16.2775 16.1297 16.2807 16.1265C16.2839 16.1233 16.2858 16.1189 16.2858 16.1144L16.3243 15.7115C16.3389 15.4592 16.2856 15.2076 16.17 14.9829C16.1248 14.8964 16.0916 14.8042 16.0715 14.7087C16.0722 14.6982 16.0765 14.6884 16.0834 14.6806C16.0904 14.6729 16.0998 14.6677 16.11 14.6658C16.1743 14.6572 16.3029 14.7515 16.3672 14.7944L16.3758 14.7986C16.6549 14.9947 16.9238 15.205 17.1815 15.4287C17.2158 15.4372 17.2243 15.4286 17.2072 15.3944L17.16 15.3258C17.1429 15.3001 17.1215 15.2744 17.1086 15.2444C17.0143 15.0729 16.9243 14.9272 16.8386 14.7986C16.71 14.5972 16.5258 14.3958 16.2943 14.1901C16.2343 14.1344 16.26 14.0615 16.3372 14.0486C16.4395 14.0308 16.5424 14.0165 16.6458 14.0058C16.6519 14.0008 16.6562 13.9937 16.6578 13.9859C16.6593 13.9781 16.6581 13.97 16.6543 13.9629C16.5911 13.8486 16.4977 13.7537 16.3843 13.6887C16.3761 13.6842 16.3696 13.6772 16.3657 13.6687C16.3618 13.6602 16.3608 13.6506 16.3629 13.6415C16.4358 13.3115 16.4786 12.9729 16.4872 12.6344C16.4872 12.5272 16.4743 12.4287 16.4658 12.3344L16.4529 12.2058C16.4468 12.1324 16.4167 12.0631 16.3672 12.0087L16.0115 11.6358C15.7337 11.3077 15.4329 10.9998 15.1115 10.7144C15.0729 10.6844 15.0429 10.6544 15 10.6372C14.9965 10.6353 14.9925 10.6347 14.9886 10.6355C14.9846 10.6363 14.9811 10.6384 14.9786 10.6415C14.9762 10.6445 14.9749 10.6483 14.9749 10.6522C14.9749 10.6561 14.9762 10.6599 14.9786 10.6629C15.0472 10.8344 15.1072 10.9972 15.15 11.1386C15.1586 11.1558 15.15 11.1686 15.1329 11.1729C15.1226 11.1741 15.1121 11.1728 15.1024 11.1691C15.0927 11.1653 15.084 11.1593 15.0772 11.1515L15.06 11.1344C15.0172 11.0915 14.9572 11.0229 14.91 11.0058C14.905 11.0052 14.8998 11.0056 14.8949 11.007C14.89 11.0084 14.8854 11.0108 14.8814 11.014C14.8775 11.0172 14.8741 11.0211 14.8717 11.0256C14.8693 11.0301 14.8677 11.035 14.8672 11.0401C14.8342 11.1734 14.8155 11.3099 14.8115 11.4472L14.8029 11.4558C14.7983 11.4575 14.7932 11.4577 14.7885 11.4561C14.7838 11.4545 14.7798 11.4514 14.7772 11.4472C14.6314 11.2837 14.5166 11.0949 14.4386 10.8901C14.3366 10.6521 14.2757 10.3985 14.2586 10.1401C14.2397 9.67856 14.3246 9.21868 14.5072 8.79436C14.5929 8.59722 14.6786 8.39579 14.79 8.20722C15.0409 7.76626 15.3291 7.34759 15.6515 6.95579C15.6943 6.89579 15.7372 6.83579 15.7886 6.78436C15.8358 6.73294 15.8486 6.74151 15.8229 6.80151L15.7929 6.88722C15.7586 6.96865 15.7286 7.05008 15.6815 7.13151C15.6215 7.23436 15.57 7.34579 15.5186 7.46151C15.4115 7.71436 15.3215 7.94151 15.2443 8.13865C15.0633 8.62226 14.941 9.12587 14.88 9.63865L14.8972 9.66008C15.0815 9.84008 15.2615 10.0201 15.4243 10.2258L15.6129 10.4572C15.7543 10.6286 15.9 10.8001 16.0329 10.9886C16.05 11.0101 16.0629 11.0101 16.08 10.9886C16.32 10.6715 16.5043 10.3115 16.6329 9.91722C16.7486 9.55294 16.8515 9.19722 16.9458 8.84579C16.9543 8.80722 16.9629 8.80722 16.9672 8.84579C16.9758 8.93151 16.9672 9.01294 16.9586 9.09436L16.9458 9.23579C16.9193 9.79965 16.8066 10.3561 16.6115 10.8858L16.38 11.4387C16.3629 11.4815 16.3672 11.5329 16.4015 11.5672C16.4658 11.6358 16.5086 11.7087 16.5386 11.7944C16.5429 11.8158 16.5558 11.8286 16.5729 11.8415C16.5756 11.8427 16.5785 11.8433 16.5815 11.8433C16.5844 11.8433 16.5873 11.8427 16.59 11.8415H16.5943L16.5986 11.8372C16.6843 11.6915 16.7615 11.5458 16.8129 11.4001L16.92 11.1558C16.9586 11.0701 16.9972 10.9887 17.0272 10.9072L17.1858 10.4915C17.8141 8.63813 18.0789 6.68093 17.9658 4.72722L17.9529 4.71865L17.94 4.72294C16.7221 5.45699 15.5956 6.33313 14.5843 7.33294L14.1986 7.76151C13.8662 8.13849 13.5786 8.55268 13.3415 8.99579C13.32 9.03865 13.2772 9.05151 13.23 9.03865L12.7158 8.94008C12.0944 8.83155 11.4568 8.85933 10.8472 9.02151L10.6972 9.05151C10.6881 9.05301 10.6789 9.05124 10.671 9.04653C10.6632 9.04182 10.6573 9.03447 10.6543 9.02579C10.6014 8.88755 10.5339 8.75537 10.4529 8.63151C10.3029 8.40436 10.1358 8.17294 9.94718 7.92436C9.87861 7.83865 9.80575 7.76151 9.7329 7.68436L9.57433 7.50436C9.50575 7.41865 9.4329 7.33722 9.35147 7.25151C9.23575 7.13151 9.11575 7.02436 8.99575 6.91722C8.91861 6.84865 8.83718 6.78008 8.76004 6.70294C8.28519 6.28043 7.78881 5.88276 7.2729 5.51151C6.87838 5.23976 6.47977 4.97401 6.07718 4.71436C6.06716 4.71416 6.05738 4.71748 6.04955 4.72375C6.04172 4.73001 6.03633 4.73882 6.03433 4.74865C5.96158 5.88925 6.02488 7.03445 6.2229 8.16008C6.33414 8.81213 6.48731 9.45632 6.68147 10.0887C6.75861 10.3458 6.89147 10.6886 7.07147 11.1344C7.17011 11.369 7.28466 11.5967 7.41433 11.8158C7.41834 11.8177 7.42274 11.8187 7.42718 11.8187C7.43163 11.8187 7.43602 11.8177 7.44004 11.8158L7.4529 11.8029L7.59433 11.5715C7.6329 11.5072 7.64147 11.4301 7.60718 11.3572C7.32288 10.8198 7.14807 10.2313 7.0929 9.62579C7.07557 9.44438 7.05843 9.26295 7.04147 9.08151ZM13.8343 14.6358C14.4258 14.6572 14.8929 14.2758 14.8758 13.6672C14.8758 13.6501 14.8629 13.6415 14.8458 13.6501L14.8029 13.6629L14.7386 13.6844L13.8472 13.8429C13.8259 13.8455 13.8055 13.8531 13.7876 13.865C13.7697 13.8769 13.7549 13.8928 13.7443 13.9115C13.6201 14.1291 13.5057 14.3522 13.4015 14.5801C13.4019 14.5871 13.4041 14.5939 13.4079 14.5999C13.4116 14.6059 13.4168 14.6109 13.4229 14.6144C13.56 14.622 13.6972 14.6291 13.8343 14.6358ZM9.60433 14.4429C9.49188 14.3457 9.40185 14.2252 9.34044 14.0898C9.27903 13.9544 9.2477 13.8073 9.24861 13.6587H9.25718L10.3029 13.8472C10.316 13.8494 10.3286 13.8544 10.3396 13.8618C10.3507 13.8691 10.3601 13.8788 10.3672 13.8901L10.7229 14.5244C10.7273 14.5316 10.7302 14.5396 10.7313 14.548C10.7323 14.5564 10.7316 14.5649 10.7292 14.573C10.7268 14.5811 10.7227 14.5886 10.7172 14.5949C10.7116 14.6013 10.7048 14.6065 10.6972 14.6101C10.4969 14.637 10.2942 14.6413 10.0929 14.6229C9.91676 14.6082 9.74791 14.546 9.60433 14.4429ZM11.3058 18.6901C11.4728 18.7914 11.6607 18.8533 11.8553 18.8712C12.0499 18.889 12.2459 18.8622 12.4286 18.7929C12.69 18.6986 12.9643 18.4672 12.9429 18.1672C12.93 17.9958 12.8143 17.8887 12.7029 17.7772L12.6943 17.7686C12.66 17.7301 12.6086 17.7301 12.5658 17.7472C12.4072 17.8072 12.2315 17.8415 12.0343 17.8501C11.8035 17.8581 11.5726 17.8336 11.3486 17.7772C11.2115 17.7429 11.1129 17.8887 11.0529 17.9958C11.0143 18.0644 10.9972 18.1415 10.9929 18.2315C10.9886 18.4158 11.1643 18.6129 11.3058 18.6901Z" fill="white"/>
</g>
<defs>
<linearGradient id="paint0_linear_31_12109" x1="-9.21147e-08" y1="8.28857" x2="24" y2="16.8" gradientUnits="userSpaceOnUse">
<stop stop-color="#042457"/>
<stop offset="0.49" stop-color="#050C22"/>
<stop offset="1" stop-color="#042459"/>
</linearGradient>
<clipPath id="clip0_31_12109">
<rect width="24" height="24" fill="white"/>
</clipPath>
</defs>
</svg>

<svg xmlns="http://www.w3.org/2000/svg" width="24" height="24" fill="none" viewBox="0 0 24 24"><g clip-path="url(#a)"><path fill="url(#b)" d="M0 0h24v24H0z"/><path fill="#fff" fill-rule="evenodd" d="M7.041 9.082c-.008-.073-.017-.142 0-.215 0-.013.005-.017.013 0q.129.36.219.733c.021.086.047.163.077.244l.043.138c.127.367.313.71.548 1.02h.01l.008-.005c.042-.043.068-.085.102-.133l.095-.124.128-.159.129-.167c.064-.064.12-.128.171-.201l.215-.244.278-.292c.06-.064.052-.141.039-.214a8 8 0 0 0-.587-1.907c-.108-.244-.215-.493-.343-.729a.06.06 0 0 1 0-.047c0-.026.017-.026.03-.004l.57.746q.231.3.527.865.167.31.27.626.155.477.163.904a2.4 2.4 0 0 1-.536 1.53l-.01.004a.02.02 0 0 1-.011-.004.04.04 0 0 1-.013-.03 1.3 1.3 0 0 0-.052-.377.055.055 0 0 0-.068-.013.7.7 0 0 0-.107.086q-.116.103-.078-.051a2 2 0 0 1 .159-.412.013.013 0 0 0-.009-.013h-.008a.2.2 0 0 0-.09.052 9.4 9.4 0 0 0-.986.998 4 4 0 0 1-.347.369.2.2 0 0 0-.064.128c-.055.495-.026.994.085 1.479l-.017.026q-.163.141-.3.308l.005.013.008.009.017.004c.12 0 .236.013.356.047a.04.04 0 0 1 .034.034.05.05 0 0 1-.013.043c-.347.35-.64.75-.87 1.187-.055.107-.034.125.06.043l.073-.068a1 1 0 0 1 .112-.099c.107-.077.214-.163.33-.257l.188-.129.185-.128c.047-.043.102-.022.115.043.013.068-.055.201-.098.282l-.013.03c-.1.22-.14.463-.12.703q.022.193.03.386l.011.01.015.003.012-.004q.246-.17.472-.365h.008l.009.009c.073.111.12.231.167.347a3 3 0 0 0 .142.339.7.7 0 0 0 .102.214l.172.218c.171.228.394.386.673.43.021 0 .043.012.055.025.018.017.022.034.022.06q-.015.303.056.613c.038.158.111.308.184.462q.066.129.124.27c.107.275.309.498.515.686l.077.052.128.051c.236.107.463.21.737.12a3 3 0 0 0 .515-.218.18.18 0 0 1 .171-.01l.377.18c.352.168.686.044 1.024-.145a1.56 1.56 0 0 0 .476-.514c.065-.159.129-.304.21-.45q.043-.085.073-.176l.043-.103c.107-.257.133-.565.12-.848a.05.05 0 0 1 .043-.056c.415-.034.643-.33.874-.634l.026-.034c.064-.086.111-.163.146-.24q.141-.316.27-.64h.008a.6.6 0 0 1 .189.108c.094.077.188.15.291.223q.02.01.039.008a.017.017 0 0 0 .017-.017l.038-.403a1.4 1.4 0 0 0-.154-.728 1 1 0 0 1-.099-.274.05.05 0 0 1 .039-.043c.064-.009.193.085.257.128l.009.005q.419.294.805.63c.035.008.043 0 .026-.035l-.047-.068c-.017-.026-.038-.052-.051-.082a6 6 0 0 0-.27-.445 3 3 0 0 0-.545-.609c-.06-.056-.034-.128.043-.141q.153-.027.309-.043a.04.04 0 0 0 .012-.02.04.04 0 0 0-.004-.023.7.7 0 0 0-.27-.274.04.04 0 0 1-.021-.047c.073-.33.116-.67.124-1.008 0-.107-.013-.205-.021-.3l-.013-.128a.33.33 0 0 0-.086-.197l-.355-.373a9 9 0 0 0-.9-.922c-.04-.03-.07-.06-.112-.077l-.011-.002a.02.02 0 0 0-.01.007.02.02 0 0 0 0 .02c.068.172.128.335.171.477.009.017 0 .03-.017.034a.07.07 0 0 1-.056-.021l-.017-.018c-.043-.043-.103-.111-.15-.128a.04.04 0 0 0-.043.034q-.05.2-.056.407l-.008.009a.02.02 0 0 1-.026-.009 1.8 1.8 0 0 1-.338-.557 2.3 2.3 0 0 1-.18-.75 3.1 3.1 0 0 1 .248-1.346c.086-.197.172-.398.283-.587.25-.44.54-.86.862-1.251q.061-.092.137-.172c.047-.051.06-.042.034.018l-.03.085c-.034.082-.064.163-.111.245q-.088.155-.163.33-.16.38-.275.677a6.5 6.5 0 0 0-.364 1.5l.017.021a6 6 0 0 1 .527.566l.189.231c.141.172.287.343.42.532q.024.032.047 0a3.6 3.6 0 0 0 .553-1.072q.173-.545.313-1.071.013-.059.021 0c.009.086 0 .167-.008.248l-.013.142a5.5 5.5 0 0 1-.335 1.65l-.231.553a.12.12 0 0 0 .021.128.6.6 0 0 1 .138.227q.007.031.034.047a.02.02 0 0 0 .017 0h.004l.005-.004a2.6 2.6 0 0 0 .214-.437l.107-.244q.06-.127.107-.249l.159-.415c.628-1.854.893-3.811.78-5.765l-.013-.008-.013.004a18 18 0 0 0-3.356 2.61l-.385.429a6.5 6.5 0 0 0-.857 1.234c-.022.043-.065.056-.112.043l-.514-.099a4.35 4.35 0 0 0-1.869.082l-.15.03a.04.04 0 0 1-.043-.026 2 2 0 0 0-.201-.394c-.15-.228-.317-.46-.506-.708-.068-.085-.141-.162-.214-.24l-.159-.18a4 4 0 0 0-.223-.252 7 7 0 0 0-.355-.335c-.077-.068-.159-.137-.236-.214q-.713-.634-1.487-1.191a47 47 0 0 0-1.196-.798.043.043 0 0 0-.043.035 14.4 14.4 0 0 0 .189 3.411q.167.979.458 1.929c.078.257.21.6.39 1.045q.15.353.343.682a.03.03 0 0 0 .026 0l.013-.013.141-.232a.22.22 0 0 0 .013-.214 4.6 4.6 0 0 1-.514-1.731zm6.793 5.554c.592.021 1.059-.36 1.042-.969 0-.017-.013-.025-.03-.017l-.043.013-.064.021-.892.159a.14.14 0 0 0-.103.069 8 8 0 0 0-.342.668q0 .01.006.02a.04.04 0 0 0 .015.014zm-4.23-.193a1.03 1.03 0 0 1-.355-.784h.008l1.046.188a.1.1 0 0 1 .064.043l.356.634a.06.06 0 0 1-.006.07.1.1 0 0 1-.02.016q-.301.04-.604.013a1 1 0 0 1-.489-.18m1.702 4.247a1.29 1.29 0 0 0 1.123.103c.261-.094.535-.326.514-.626-.013-.171-.129-.278-.24-.39l-.009-.008c-.034-.039-.085-.039-.128-.022q-.238.09-.532.103a2.5 2.5 0 0 1-.685-.073c-.138-.034-.236.112-.296.219a.5.5 0 0 0-.06.236c-.004.184.171.38.313.458" clip-rule="evenodd"/></g><defs><linearGradient id="b" x1="0" x2="24" y1="8.289" y2="16.8" gradientUnits="userSpaceOnUse"><stop stop-color="#042457"/><stop offset=".49" stop-color="#050C22"/><stop offset="1" stop-color="#042459"/></linearGradient><clipPath id="a"><path fill="#fff" d="M0 0h24v24H0z"/></clipPath></defs></svg>
